X: 35528
T: Ruins Of Killmallock, The
R: jig
M: 6/8
K: Gmajor
A|:BAB cBc|d2A G2G|BAc BAG|FDE F2A|
BAB cBc|d2A G2G|BAc BAG|1 EFG G2A:|2 EFG G3||
|:gfg dBd|gfe dcB|cBc AFA|cBc def|
gfg dBd|gfe dcB|ABc def|1 gGG G3:|2 gGG G2A||

